X:1
T:5. Mit Ernst, o Menschenkinder
T:Hugo Distler
T:Valentin Thilo (1662)
T:5.  Prepare Your Hearts, O Children Mit Ernst, o Menschenkinder Advent
T:Bärenreiter
T:Bärenreiter
T:Bärenreiter
C:Hugo Distler
Z:Valentin Thilo
Z:(1662)
Z:Bärenreiter
%%score [ 1 ( 2 3 ) ( 4 5 ) ]
L:1/8
Q:1/4=96
M:4/4
K:F
V:1 treble nm="Sop."
V:2 treble nm="Alto"
V:3 treble 
V:4 bass nm="Bar."
V:5 bass 
V:1
 G4 | G4 A4 | (B2 A2) G4 | (A6 G2) | !breath!F4 F4 | (G3 F E2) (FG) | A4 A4 | D8- | !breath!D4 G4 | %9
w: 1. Pre-|pare your|hearts, _ O|child- *|ren, with|se- * * ri- *|ous in-|tent,|_ so|
w: 2. Pre-|pare a|way _ that's|pro- *|per for|this _ _ most _|hon- ored|Guest,|_ and|
w: 3. A|hum- ble|heart _ will|al- *|ways stand|high _ _ in _|God's es-|teem;|_ a|
w: 4. O|Christ, help|me, _ poor|sin- *|ner, in|this _ _ so _|sa- cred|hour,|_ from|
 G4 A4 | (B2 A2) G4 | (A6 G2) | !breath!F4 F4 | (G3 F E2) (FG) | A4 A4 | D8- | !breath!D6 d2 | %17
w: that the|Lord, _ our|Sav- *|ior, who|has _ _ to _|us been|sent|_ by|
w: make His|path- * way|lev- *|el, strive|on- * * ly _|for the|best,|_ make|
w: pride- ful|heart _ wil|al- *|ways be|lost _ _ to _|stress and|strain;|_ a|
w: out Your|bound- * less|mer- *|cy, my-|self _ _ for _|You pre-|pare!|_ Come|
 c2 B2 B2 A2 | !breath!B4 A4 | B6 c2 | d2 B2 c4 | !breath!A2 A2 B4 | A4 G2 G2 | A4 !breath!F2 E2 | %24
w: God through grace a-|lone to|bring the|world sal- va-|tion, His light|and love's ex-|pres- sion, may|
w: roads and high- ways|smooth, the|val- leys|now make high-|er, all hills|and moun- tains|low- er, the|
w: right- eous heart is|one that|fol- lows|God's di- rec-|tion, with pro-|per pre- par-|a- tion; to|
w: now in- to my|heart from|cow stall|and from man-|ger and I|in love and|fer- vor shall|
 D2 G2 G2 ^F2 | G4 x4 |] %26
w: find in you a|home.|
w: crook- ed straight and|true.|
w: him will Je- sus|come.|
w: heart- felt thanks im-|part.|
V:2
 D4 | _E6 D2 | G2 F4 _E2 | !breath!D2 D2 (B4 | A2 Bc B2 cd | c4- cBAG | F2) (=ED) E2 E2 | %7
w: 1. Pre-|pare your|hearts, O child-|ren, with se-|||* ri- * ous in-|
w: 2. Pre-|pare a|way that's pro-|per for this|_ _ _ _ _ _||* most _ hon- ored|
w: 3. A|hum- ble|heart will al-|ways stand high|_ _ _ _ _ _||* in _ God's es-|
w: 4. O|Christ, help|me, poor sin-|ner, in this|_ _ _ _ _ _||* so _ sa- cred|
 (D3 C B,2 A,2 | !breath!B,4) D4 | _E6 D2 | G2 F4 _E2 | !breath!D2 D2 (B4 | A2 Bc B2 cd | %13
w: tent, _ _ _|_ so|that the|Lord, our Sav-|ior, who has|_ _ _ _ _ _|
w: Guest, _ _ _|_ and|make His|path- way lev-|el, strive on-||
w: teem; _ _ _|_ a|pride- ful|heart wil al-|ways be lost|_ _ _ _ _ _|
w: hour, _ _ _|_ from|out Your|bound- less mer-|cy, my- self|_ _ _ _ _ _|
 c4- cBAG | F2) (=ED) E2 E2 | (D3 C B,2 A,2 | !breath!B,6) (FG) | _A2 _B2 G2 (F_E) | %18
w: |* to _ us been|sent _ _ _|_ by _|God through grace a- *|
w: |* ly _ for the|best, _ _ _|_ make _|roads and high- ways _|
w: |* to _ stress and|strain; _ _ _|_ a _|right- eous heart is _|
w: |* for _ You pre-|pare! _ _ _|_ Come _|now in- to my _|
 !breath!F4 C4 | F2 D2 G2 =E2 | (=A3 G FE/D/ E2) | F4 z2 D2 | (F3 E D2) C2 | DC =B,2 !breath!A,4 | %24
w: lone to|bring the world sal-|va- * * * * *|tion, His|light _ _ and|love's ex- pres- sion,|
w: smooth, the|val- leys now make|high- * * * * *|er, all|hills _ _ and|moun- tains low- er,|
w: one that|fol- lows God's di-|rec- * * * * *|tion, with|pro- * * per|pre- par- a- tion;|
w: heart from|cow stall and from|man- * * * * *|ger and|I _ _ in|love and fer- vor|
 _B,2 A,G, A,2 A,2 | D4 x4 |] %26
w: may find in you a|home.|
w: the crook- ed straight and|true.|
w: to him will Je- sus|come.|
w: shall heart- felt thanks im-|part.|
V:3
 x4 | x8 | x8 | x8 | x8 | x8 | x8 | x8 | x8 | x8 | x8 | x8 | x8 | x8 | x8 | x8 | x8 | x8 | D4 C4 | %19
 x8 | x8 | x8 | x8 | x8 | x8 | =B,4 x4 |] %26
V:4
 z4 | z8 | z8 | z2 D,2 D,2 _E,2 | F,4 D,4 | (_E,3 D,) !breath!C,2 B,,2 | D,6 C,2 | D,4 D,4 | %8
w: |||1. Pre- pare your|hearts, O|child- * ren, with|se- ri-|ous in-|
w: |||2. Pre- pare a|way that's|pro- * per for|this most|hon- ored|
w: |||3. A hum- ble|heart will|al- * ways stand|high in|God's es-|
w: |||4. O Christ, help|me, poor|sin- * ner, in|this so|sa- cred|
"^(""^)" G,,8 | z8 | z8 | z2 D,2 D,2 _E,2 | F,4 D,4 | (_E,3 D,) !breath!C,2 B,,2 | D,6 C,2 | %15
w: tent,|||so that the|Lord, our|Sav- * ior, who|has to|
w: Guest,|||and make His|path- way|lev- * el, strive|on- ly|
w: teem;|||a pride- ful|heart wil|al- * ways be|lost to|
w: hour,|||from out Your|bound- less|mer- * cy, my-|self for|
 D,4 D,4 |"^(""^)" !breath!G,,6 B,2 | (F,_E,) D,2 E,2 F,2 | !breath!B,,2 B,,2 ((F,3 _E,) | %19
w: us been|sent by|God _ through grace a-|lone to bring, _|
w: for the|best, make|roads _ and high- ways|smooth, the val- *|
w: stress and|strain; a|right- * eous heart is|one that fol- *|
w: You pre-|pare! Come|now _ in- to my|heart from cow _|
 !breath!D,)D, (G,3 F,) =E,2 | F,2 G,2 C,4 | F,4 z4 | z2 F,2 F,2 E,2 | D,A,, E,2 !breath!D,4 | %24
w: _ to bring _ the|world sal- va-|tion,|His light and|love's ex- pres- sion,|
w: leys, the val- * leys|now make high-|er,|all hills and|moun- tains low- er,|
w: lows, that fol- * lows|God's di- rec-|tion,|with pro- per|pre- par- a- tion;|
w: stall, from cow _ stall|and from man-|ger|and I in|love and fer- vor|
 G,2 G,G, D,2 D,2 |"^(""^)" G,,4 x4 |] %26
w: may find in you a|home.|
w: the crook- ed straight and|true.|
w: to him will Je- sus|come.|
w: shall heart- felt thanks im-|part.|
V:5
 x4 | x8 | x8 | x8 | x8 | x8 | x8 | x8 | G,8 | x8 | x8 | x8 | x8 | x8 | x8 | x8 | G,6 B,2 | x8 | %18
 x8 | x8 | x8 | x8 | x8 | x8 | x8 | G,4 x4 |] %26

